src/img/icon-sending-email.svg

<?xml version="1.0" encoding="UTF-8"?>
<svg width="40px" height="40px" viewBox="0 0 40 40" version="1.1" xmlns="http://www.w3.org/2000/svg" xmlns:xlink="http://www.w3.org/1999/xlink">
    <!-- Generator: Sketch 51 (57462) - http://www.bohemiancoding.com/sketch -->
    <title>category-block-icon</title>
    <desc>Created with Sketch.</desc>
    <defs></defs>
    <g id="Symbols" stroke="none" stroke-width="1" fill="none" fill-rule="evenodd">
        <g id="category-block" transform="translate(-155.000000, -31.000000)" fill="#2484DF">
            <g id="category-block-icon-mail" transform="translate(155.000000, 31.000000)">
                <circle id="Oval" fill-opacity="0.05" cx="20" cy="20" r="20"></circle>
                <path d="M25.963184,26.1953827 L18.6240574,22.1603827 L28.8991681,12.6228827 L25.963184,26.1953827 Z M18.3347938,27.3720494 L18.3347938,22.9520494 L20.2871148,24.0253827 L18.3347938,27.3720494 Z M17.8254564,21.7645494 L11.5366819,19.3195494 L27.6087355,12.6837161 L17.8254564,21.7645494 Z M18.2781081,29.1228827 L21.0173596,24.4270494 L26.0515469,27.1945494 C26.2957955,27.3295494 26.6008977,27.1903827 26.6592506,26.9178827 L29.9937016,11.5037161 C29.9945352,11.5003827 29.992868,11.4970494 29.9937016,11.4928827 C30.0003705,11.4595494 30.0012041,11.4270494 29.9987033,11.3937161 C29.9978697,11.3753827 29.9978697,11.3570494 29.9945352,11.3395494 C29.9903671,11.3212161 29.9845319,11.3037161 29.9786966,11.2862161 C29.9695268,11.2578827 29.9586899,11.2312161 29.9436848,11.2070494 C29.9361823,11.1937161 29.9278462,11.1828827 29.9186764,11.1712161 C29.9028378,11.1495494 29.8861655,11.1295494 29.8669925,11.1120494 C29.8494866,11.0953827 29.8311471,11.0820494 29.8111404,11.0687161 C29.7978026,11.0603827 29.7844648,11.0528827 29.7702934,11.0453827 C29.7444514,11.0320494 29.7186094,11.0212161 29.6894329,11.0137161 C29.6727607,11.0095494 29.6552548,11.0078827 29.637749,11.0053827 C29.6144078,11.0028827 29.5910666,10.9987161 29.5668919,11.0003827 C29.5152079,11.0020494 29.4643575,11.0128827 29.4151744,11.0362161 L10.2579199,18.9462161 C9.91030344,19.0895494 9.91530511,19.5837161 10.2654225,19.7195494 L17.5011811,22.5320494 L17.5011811,28.9128827 C17.5011811,29.3378827 18.063036,29.4895494 18.2781081,29.1228827 L18.2781081,29.1228827 Z" id="airplane"></path>
            </g>
        </g>
    </g>
</svg>

<svg width="40" height="40" xmlns="http://www.w3.org/2000/svg"><g fill="#2484DF" fill-rule="evenodd"><circle fill-opacity=".05" cx="20" cy="20" r="20"/><path d="M25.963 26.195l-7.339-4.035L28.9 12.623l-2.936 13.572zm-7.628 1.177v-4.42l1.952 1.073-1.952 3.347zm-.51-5.607l-6.288-2.445 16.072-6.636-9.784 9.08zm.453 7.358l2.74-4.696 5.034 2.768a.416.416 0 0 0 .607-.277l3.335-15.414v-.011a.36.36 0 0 0 .005-.1c-.001-.018-.001-.036-.004-.053a.562.562 0 0 0-.051-.133.275.275 0 0 0-.025-.036.393.393 0 0 0-.149-.126.38.38 0 0 0-.08-.031c-.017-.004-.035-.006-.052-.009-.024-.002-.047-.006-.071-.005a.378.378 0 0 0-.152.036l-19.157 7.91a.417.417 0 0 0 .007.774l7.236 2.812v6.38c0 .426.562.578.777.21z"/></g></svg>
